material/.icons/material/format-list-numbered.svg

<svg xmlns="http://www.w3.org/2000/svg" viewBox="0 0 24 24"><path d="M7 13v-2h14v2H7m0 6v-2h14v2H7M7 7V5h14v2H7M3 8V5H2V4h2v4H3m-1 9v-1h3v4H2v-1h2v-.5H3v-1h1V17H2m2.25-7a.75.75 0 01.75.75c0 .2-.08.39-.21.52L3.12 13H5v1H2v-.92L4 11H2v-1h2.25z"/></svg>

<?xml version="1.0" encoding="UTF-8"?><!DOCTYPE svg PUBLIC "-//W3C//DTD SVG 1.1//EN" "http://www.w3.org/Graphics/SVG/1.1/DTD/svg11.dtd"><svg xmlns="http://www.w3.org/2000/svg" xmlns:xlink="http://www.w3.org/1999/xlink" version="1.1" id="mdi-format-list-numbered" width="24" height="24" viewBox="0 0 24 24"><path d="M7,13V11H21V13H7M7,19V17H21V19H7M7,7V5H21V7H7M3,8V5H2V4H4V8H3M2,17V16H5V20H2V19H4V18.5H3V17.5H4V17H2M4.25,10A0.75,0.75 0 0,1 5,10.75C5,10.95 4.92,11.14 4.79,11.27L3.12,13H5V14H2V13.08L4,11H2V10H4.25Z" /></svg>
